packages/ffe-icons/icons/open/300/md/frame_person.svg

<svg xmlns="http://www.w3.org/2000/svg" height="24" viewBox="0 -960 960 960" width="24"><path d="M479.954-482.308q-46.338 0-78.146-31.807-31.807-31.808-31.807-78.146 0-45.43 31.807-77.738 31.808-32.307 78.146-32.307 45.43 0 77.738 32.307 32.307 32.308 32.307 77.738 0 46.338-32.307 78.146-32.308 31.807-77.738 31.807Zm.046-59.998q20.846 0 35.424-14.376 14.577-14.375 14.577-35.625 0-20.847-14.577-35.424-14.578-14.577-35.616-14.577-21.039 0-35.424 14.577-14.385 14.577-14.385 35.616t14.375 35.424Q458.75-542.306 480-542.306ZM250.001-293.847v-29.846q0-18.541 9.361-34.876 9.36-16.334 25.408-26.046 44.461-26.231 93.807-39.654Q427.923-437.692 480-437.692q52.077 0 101.423 13.423 49.346 13.423 93.807 39.654 16.048 9.712 25.408 26.046 9.361 16.335 9.361 34.876v29.846q0 15.365-10.394 25.759t-25.759 10.394H286.154q-15.365 0-25.759-10.394t-10.394-25.759ZM480-377.694q-42.923 0-85 11.539-42.078 11.539-81.309 33.846v15.002h332.618v-15.386q-38.847-22.308-81.116-33.654-42.27-11.347-85.193-11.347Zm0-214.613Zm0 275h166.309-332.618H480ZM172.309-100.001q-30.308 0-51.308-21t-21-51.308v-117.692q0-12.749 8.629-21.374Q117.259-320 130.014-320q12.756 0 21.371 8.625Q160-302.75 160-290.001v117.692q0 4.616 3.846 8.463 3.847 3.846 8.463 3.846h117.692q12.749 0 21.374 8.629Q320-142.743 320-129.987q0 12.755-8.625 21.37-8.625 8.616-21.374 8.616H172.309Zm-72.308-569.998v-117.692q0-30.308 21-51.308t51.308-21h117.692q12.749 0 21.374 8.629Q320-842.741 320-829.986q0 12.756-8.625 21.371Q302.75-800 290.001-800H172.309q-4.616 0-8.463 3.846-3.846 3.847-3.846 8.463v117.692q0 12.749-8.629 21.374Q142.743-640 129.987-640q-12.755 0-21.37-8.625-8.616-8.625-8.616-21.374Zm687.69 569.998H669.999q-12.749 0-21.374-8.629Q640-117.259 640-130.014q0-12.756 8.625-21.371Q657.25-160 669.999-160h117.692q4.616 0 8.463-3.846 3.846-3.847 3.846-8.463v-117.692q0-12.749 8.629-21.374Q817.257-320 830.013-320q12.755 0 21.37 8.625 8.616 8.625 8.616 21.374v117.692q0 30.308-21 51.308t-51.308 21ZM800-669.999v-117.692q0-4.616-3.846-8.463-3.847-3.846-8.463-3.846H669.999q-12.749 0-21.374-8.629Q640-817.257 640-830.013q0-12.755 8.625-21.37 8.625-8.616 21.374-8.616h117.692q30.308 0 51.308 21t21 51.308v117.692q0 12.749-8.629 21.374Q842.741-640 829.986-640q-12.756 0-21.371-8.625Q800-657.25 800-669.999Z"/></svg>

<svg xmlns="http://www.w3.org/2000/svg" height="24" viewBox="0 -960 960 960" width="24"><path d="M479.95-482.31q-46.33 0-78.14-31.81Q370-545.92 370-592.26q0-45.43 31.81-77.74 31.81-32.31 78.14-32.31 45.43 0 77.74 32.31Q590-637.69 590-592.26q0 46.34-32.31 78.14-32.31 31.81-77.74 31.81Zm.05-60q20.85 0 35.42-14.37Q530-571.06 530-592.31q0-20.84-14.58-35.42-14.57-14.58-35.61-14.58t-35.43 14.58Q430-613.15 430-592.11q0 21.03 14.37 35.42 14.38 14.38 35.63 14.38ZM250-293.85v-29.84q0-18.54 9.36-34.88 9.36-16.33 25.41-26.05 44.46-26.23 93.81-39.65 49.34-13.42 101.42-13.42t101.42 13.42q49.35 13.42 93.81 39.65 16.05 9.72 25.41 26.05 9.36 16.34 9.36 34.88v29.84q0 15.37-10.39 25.76-10.4 10.4-25.76 10.4h-387.7q-15.36 0-25.76-10.4Q250-278.48 250-293.85Zm230-83.84q-42.92 0-85 11.53-42.08 11.54-81.31 33.85v15h332.62v-15.38q-38.85-22.31-81.12-33.66-42.27-11.34-85.19-11.34Zm0-214.62Zm0 275h166.31-332.62H480ZM172.31-100Q142-100 121-121q-21-21-21-51.31V-290q0-12.75 8.63-21.38 8.63-8.62 21.38-8.62 12.76 0 21.37 8.62Q160-302.75 160-290v117.69q0 4.62 3.85 8.46 3.84 3.85 8.46 3.85H290q12.75 0 21.38 8.63 8.62 8.63 8.62 21.38 0 12.76-8.62 21.37Q302.75-100 290-100H172.31ZM100-670v-117.69Q100-818 121-839q21-21 51.31-21H290q12.75 0 21.38 8.63 8.62 8.63 8.62 21.38 0 12.76-8.62 21.37Q302.75-800 290-800H172.31q-4.62 0-8.46 3.85-3.85 3.84-3.85 8.46V-670q0 12.75-8.63 21.38-8.63 8.62-21.38 8.62-12.76 0-21.37-8.62Q100-657.25 100-670Zm687.69 570H670q-12.75 0-21.38-8.63-8.62-8.63-8.62-21.38 0-12.76 8.62-21.37Q657.25-160 670-160h117.69q4.62 0 8.46-3.85 3.85-3.84 3.85-8.46V-290q0-12.75 8.63-21.38 8.63-8.62 21.38-8.62 12.76 0 21.37 8.62Q860-302.75 860-290v117.69Q860-142 839-121q-21 21-51.31 21ZM800-670v-117.69q0-4.62-3.85-8.46-3.84-3.85-8.46-3.85H670q-12.75 0-21.38-8.63-8.62-8.63-8.62-21.38 0-12.76 8.62-21.37Q657.25-860 670-860h117.69Q818-860 839-839q21 21 21 51.31V-670q0 12.75-8.63 21.38-8.63 8.62-21.38 8.62-12.76 0-21.37-8.62Q800-657.25 800-670Z"/></svg>
